shared/images/iconfont/kb-iconfont-info-16.svg

<?xml version="1.0" encoding="UTF-8"?>
<svg width="16px" height="16px" viewBox="0 0 16 16" version="1.1" xmlns="http://www.w3.org/2000/svg" xmlns:xlink="http://www.w3.org/1999/xlink">
    <!-- Generator: sketchtool 41.2 (35397) - http://www.bohemiancoding.com/sketch -->
    <title>BB301147-34C6-42BD-B0C2-EDFFDCAE1B23</title>
    <desc>Created with sketchtool.</desc>
    <defs></defs>
    <g id="Icons" stroke="none" stroke-width="1" fill="none" fill-rule="evenodd">
        <g id="Style-guide---Desktop---Icons-2" transform="translate(-431.000000, -1087.000000)">
            <g id="kb-iconfont-info-16" transform="translate(431.000000, 1087.000000)">
                <g id="kb-iconfont-info">
                    <rect id="icon-area" x="0" y="0" width="16" height="16"></rect>
                    <path d="M8,1.5 C4.41845483,1.5 1.5,4.41845483 1.5,8 C1.5,11.5815452 4.41845483,14.5 8,14.5 C11.5815452,14.5 14.5,11.5815452 14.5,8 C14.5,4.41845483 11.5815452,1.5 8,1.5 Z M8,0 C12.4099723,0 16,3.5900277 16,8 C16,12.4099723 12.4099723,16 8,16 C3.5900277,16 0,12.4099723 0,8 C0,3.5900277 3.5900277,0 8,0 Z" id="Page-1" fill="#000000"></path>
                    <path d="M8.02879212,7 C8.68443545,7 9.14552213,7.5162555 9.05604068,8.17227785 L8.69383808,10.8277221 C8.60552847,11.4751533 8.00142766,12 7.34679212,12 L8.03808663,12 C7.38244331,12 6.92135663,11.4837445 7.01083808,10.8277221 L7.37304068,8.17227785 C7.46135029,7.52484667 8.0654511,7 8.72008663,7 L8.02879212,7 Z M9.53493938,5.001 C9.53493938,5.13666734 9.50560634,5.26408274 9.44693938,5.38325 C9.38827242,5.50241726 9.31127319,5.60691622 9.21593938,5.69675 C9.12060557,5.78658378 9.01152333,5.85808307 8.88868938,5.91125 C8.76585543,5.96441693 8.64027335,5.991 8.51193938,5.991 C8.3836054,5.991 8.2607733,5.96441693 8.14343938,5.91125 C8.02610546,5.85808307 7.92252316,5.78658378 7.83268938,5.69675 C7.7428556,5.60691622 7.67043965,5.50241726 7.61543938,5.38325 C7.5604391,5.26408274 7.53293938,5.13666734 7.53293938,5.001 C7.53293938,4.86533265 7.5604391,4.73700061 7.61543938,4.616 C7.67043965,4.49499939 7.74468891,4.38866712 7.83818938,4.297 C7.93168985,4.20533287 8.03710546,4.13291693 8.15443938,4.07975 C8.2717733,4.02658307 8.3946054,4 8.52293938,4 C8.65494004,4 8.78143877,4.02566641 8.90243938,4.077 C9.02343998,4.12833359 9.13068891,4.19983288 9.22418938,4.2915 C9.31768985,4.38316712 9.39285576,4.48949939 9.44968938,4.6105 C9.506523,4.7315006 9.53493938,4.86166597 9.53493938,5.001 L9.53493938,5.001 Z" id="i" fill="#000000"></path>
                </g>
            </g>
        </g>
    </g>
</svg>

<svg xmlns="http://www.w3.org/2000/svg" width="16" height="16" viewBox="0 0 16 16">
    <g fill="none" fill-rule="evenodd">
        <path d="M0 0h16v16H0z"/>
        <path fill="#000" fill-rule="nonzero" d="M8 1.5C4.418 1.5 1.5 4.418 1.5 8s2.918 6.5 6.5 6.5 6.5-2.918 6.5-6.5S11.582 1.5 8 1.5zM8 0c4.41 0 8 3.59 8 8s-3.59 8-8 8-8-3.59-8-8 3.59-8 8-8z"/>
        <path fill="#000" d="M8.029 7c.655 0 1.117.516 1.027 1.172l-.362 2.656C8.606 11.475 8 12 7.347 12h.691c-.656 0-1.117-.516-1.027-1.172l.362-2.656C7.461 7.525 8.065 7 8.72 7H8.03zm1.506-1.999c0 .136-.03.263-.088.382a1.086 1.086 0 0 1-.558.528.94.94 0 0 1-.377.08.883.883 0 0 1-.369-.08 1.046 1.046 0 0 1-.528-.528.92.92 0 0 1 0-.767 1.093 1.093 0 0 1 .539-.536.883.883 0 0 1 .369-.08c.132 0 .258.026.38.077.12.051.228.123.321.215.094.091.169.197.226.319a.907.907 0 0 1 .085.39z"/>
    </g>
</svg>
